Origami/48x48/apps/goodvibes.svg

<svg width="48" height="48" version="1" xmlns="http://www.w3.org/2000/svg">
 <rect transform="scale(-1,1)" x="-44" y="8" width="40" height="32" rx="2" ry="2" style="fill:#ffc543"/>
 <circle cx="13" cy="30" r="6" style="opacity:.2"/>
 <circle cx="13" cy="29" r="6" style="fill:#ff5100"/>
 <path d="m6 8c-1.108 0-2 0.892-2 2v1c0-1.108 0.892-2 2-2h36c1.108 0 2 0.892 2 2v-1c0-1.108-0.892-2-2-2h-36z" fill="#fff" opacity=".2"/>
 <path d="m4 38v1c0 1.108 0.892 2 2 2h36c1.108 0 2-0.892 2-2v-1c0 1.108-0.892 2-2 2h-36c-1.108 0-2-0.892-2-2z" opacity=".2"/>
 <rect x="7" y="11" width="34" height="7" style="fill:#4d4d4d"/>
 <rect transform="rotate(90)" x="12.75" y="-20" width="5.25" height="4" style="fill:#ff5100"/>
 <path d="m27 21a2 2 0 0 0 -2 2 2 2 0 0 0 2 2 2 2 0 0 0 2 -2 2 2 0 0 0 -2 -2zm6 0a2 2 0 0 0 -2 2 2 2 0 0 0 2 2 2 2 0 0 0 2 -2 2 2 0 0 0 -2 -2zm6 0a2 2 0 0 0 -2 2 2 2 0 0 0 2 2 2 2 0 0 0 2 -2 2 2 0 0 0 -2 -2zm-12 6a2 2 0 0 0 -2 2 2 2 0 0 0 2 2 2 2 0 0 0 2 -2 2 2 0 0 0 -2 -2zm6 0a2 2 0 0 0 -2 2 2 2 0 0 0 2 2 2 2 0 0 0 2 -2 2 2 0 0 0 -2 -2zm6 0a2 2 0 0 0 -2 2 2 2 0 0 0 2 2 2 2 0 0 0 2 -2 2 2 0 0 0 -2 -2zm-12 6a2 2 0 0 0 -2 2 2 2 0 0 0 2 2 2 2 0 0 0 2 -2 2 2 0 0 0 -2 -2zm6 0a2 2 0 0 0 -2 2 2 2 0 0 0 2 2 2 2 0 0 0 2 -2 2 2 0 0 0 -2 -2zm6 0a2 2 0 0 0 -2 2 2 2 0 0 0 2 2 2 2 0 0 0 2 -2 2 2 0 0 0 -2 -2z" style="fill:#4d4d4d"/>
</svg>

<svg xmlns="http://www.w3.org/2000/svg" width="48" height="48" version="1">
 <rect style="fill:#ffc543" width="40" height="32" x="-44" y="8" rx="2" ry="2" transform="scale(-1,1)"/>
 <circle style="opacity:0.2" cx="13" cy="30" r="6"/>
 <circle style="fill:#ff5100" cx="13" cy="29" r="6"/>
 <path fill="#fff" opacity=".2" d="m6 8c-1.108 0-2 0.892-2 2v1c0-1.108 0.892-2 2-2h36c1.108 0 2 0.892 2 2v-1c0-1.108-0.892-2-2-2h-36z"/>
 <path opacity=".2" d="m4 38v1c0 1.108 0.892 2 2 2h36c1.108 0 2-0.892 2-2v-1c0 1.108-0.892 2-2 2h-36c-1.108 0-2-0.892-2-2z"/>
 <rect style="fill:#4d4d4d" width="34" height="7" x="7" y="11"/>
 <rect style="fill:#ff5100" width="5.25" height="4" x="12.75" y="-20" transform="matrix(0,1,-1,0,0,0)"/>
 <path style="fill:#4d4d4d" d="M 27 21 A 2 2 0 0 0 25 23 A 2 2 0 0 0 27 25 A 2 2 0 0 0 29 23 A 2 2 0 0 0 27 21 z M 33 21 A 2 2 0 0 0 31 23 A 2 2 0 0 0 33 25 A 2 2 0 0 0 35 23 A 2 2 0 0 0 33 21 z M 39 21 A 2 2 0 0 0 37 23 A 2 2 0 0 0 39 25 A 2 2 0 0 0 41 23 A 2 2 0 0 0 39 21 z M 27 27 A 2 2 0 0 0 25 29 A 2 2 0 0 0 27 31 A 2 2 0 0 0 29 29 A 2 2 0 0 0 27 27 z M 33 27 A 2 2 0 0 0 31 29 A 2 2 0 0 0 33 31 A 2 2 0 0 0 35 29 A 2 2 0 0 0 33 27 z M 39 27 A 2 2 0 0 0 37 29 A 2 2 0 0 0 39 31 A 2 2 0 0 0 41 29 A 2 2 0 0 0 39 27 z M 27 33 A 2 2 0 0 0 25 35 A 2 2 0 0 0 27 37 A 2 2 0 0 0 29 35 A 2 2 0 0 0 27 33 z M 33 33 A 2 2 0 0 0 31 35 A 2 2 0 0 0 33 37 A 2 2 0 0 0 35 35 A 2 2 0 0 0 33 33 z M 39 33 A 2 2 0 0 0 37 35 A 2 2 0 0 0 39 37 A 2 2 0 0 0 41 35 A 2 2 0 0 0 39 33 z"/>
</svg>
